svg/cellphone_dock.svg

<svg xmlns="http://www.w3.org/2000/svg" viewBox="0 0 24 24"><path d="M16 15H8V5h8m0-4H8c-1.11 0-2 .89-2 2v14a2 2 0 0 0 2 2h8a2 2 0 0 0 2-2V3a2 2 0 0 0-2-2M8 23h8v-2H8z"/></svg>

<?xml version="1.0" encoding="UTF-8"?><!DOCTYPE svg PUBLIC "-//W3C//DTD SVG 1.1//EN" "http://www.w3.org/Graphics/SVG/1.1/DTD/svg11.dtd"><svg xmlns="http://www.w3.org/2000/svg" xmlns:xlink="http://www.w3.org/1999/xlink" version="1.1" id="mdi-cellphone-dock" width="24" height="24" viewBox="0 0 24 24"><path d="M16,15H8V5H16M16,1H8C6.89,1 6,1.89 6,3V17A2,2 0 0,0 8,19H16A2,2 0 0,0 18,17V3C18,1.89 17.1,1 16,1M8,23H16V21H8V23Z" /></svg>
